Origami/22x22/apps/dottrace.svg

<svg width="22" height="22" version="1" xmlns="http://www.w3.org/2000/svg">
 <path d="m11 1h-9c-0.554 0-1 0.446-1 1v9h10z" style="fill:#cf4f8c"/>
 <path d="m11 1h9c0.554 0 1 0.446 1 1v9h-10z" style="fill:#c72566"/>
 <path d="m11 21h-9c-0.554 0-1-0.446-1-1v-9h10z" style="fill:#6655e4"/>
 <path d="m11 21h9c0.554 0 1-0.446 1-1v-9h-10z" style="fill:#cf4f8c"/>
 <path d="m2 1c-0.554 0-1 0.446-1 1v0.5c0-0.554 0.446-1 1-1h18c0.554 0 1 0.446 1 1v-0.5c0-0.554-0.446-1-1-1z" style="fill:#ffffff;opacity:.2"/>
 <path d="m2 21.5c-0.554 0-1-0.446-1-1v-0.5c0 0.554 0.446 1 1 1h18c0.554 0 1-0.446 1-1v0.5c0 0.554-0.446 1-1 1z" style="opacity:.2"/>
 <rect x="4" y="4" width="14" height="14" style="fill:#3f3f3f"/>
 <path d="m6.5071212 14.99995h3.9999998" style="fill:none;opacity:.2;stroke-linecap:round;stroke:#000000"/>
 <path d="m6.5071212 14.5h3.9999998" style="fill:none;stroke-linecap:round;stroke:#ffffff"/>
 <path d="m6.5071212 10.99995s2.021891 0.175125 1.9999995-1.999999c-0.02189-2.175132-1.9999995-2.0000015-1.9999995-2.0000015m-0.00705 3.9967935v-3.999999" style="fill:none;opacity:.2;stroke-linecap:round;stroke-linejoin:bevel;stroke-width:.99999994;stroke:#000000"/>
 <path d="m6.5071212 10.5s2.021891 0.175125 1.9999995-1.999999c-0.02189-2.175132-1.9999995-2.0000015-1.9999995-2.0000015m-0.00705 3.9967935v-3.999999" style="fill:none;stroke-linecap:round;stroke-linejoin:bevel;stroke-width:.99999994;stroke:#ffffff"/>
 <path d="m10.50712 6.99995h2m-0.999999 4.000001v-4.000001" style="fill:none;opacity:.2;stroke-linecap:round;stroke-width:.99999994;stroke:#000000"/>
 <path d="m10.50712 6.5h2m-0.999999 4.000001v-4.000001" style="fill:none;stroke-linecap:round;stroke-width:.99999994;stroke:#ffffff"/>
</svg>

<svg xmlns="http://www.w3.org/2000/svg" width="22" height="22" version="1">
 <path style="fill:#cf4f8c" d="M 11,1 H 2 C 1.446,1 1,1.446 1,2 v 9 h 10 z"/>
 <path style="fill:#c72566" d="m 11,1 h 9 c 0.554,0 1,0.446 1,1 v 9 H 11 Z"/>
 <path style="fill:#6655e4" d="M 11,21 H 2 C 1.446,21 1,20.554 1,20 v -9 h 10 z"/>
 <path style="fill:#cf4f8c" d="m 11,21 h 9 c 0.554,0 1,-0.446 1,-1 V 11 H 11 Z"/>
 <path style="opacity:0.2;fill:#ffffff" d="M 2,1 C 1.446,1 1,1.446 1,2 v 0.5 c 0,-0.554 0.446,-1 1,-1 h 18 c 0.554,0 1,0.446 1,1 V 2 C 21,1.446 20.554,1 20,1 Z"/>
 <path style="opacity:0.2" d="m 2,21.5 c -0.554,0 -1,-0.446 -1,-1 V 20 c 0,0.554 0.446,1 1,1 h 18 c 0.554,0 1,-0.446 1,-1 v 0.5 c 0,0.554 -0.446,1 -1,1 z"/>
 <rect style="fill:#3f3f3f" width="14" height="14" x="4" y="4"/>
 <path style="opacity:0.2;fill:none;stroke:#000000;stroke-linecap:round" d="M 6.5071212,14.99995 H 10.507121"/>
 <path style="fill:none;stroke:#ffffff;stroke-linecap:round" d="M 6.5071212,14.5 H 10.507121"/>
 <path style="opacity:0.2;fill:none;stroke:#000000;stroke-width:0.99999994;stroke-linecap:round;stroke-linejoin:bevel" d="m 6.5071212,10.99995 c 0,0 2.021891,0.175125 1.9999995,-1.999999 C 8.4852307,6.824819 6.5071212,6.9999495 6.5071212,6.9999495 m -0.00705,3.9967935 V 6.996744"/>
 <path style="fill:none;stroke:#ffffff;stroke-width:0.99999994;stroke-linecap:round;stroke-linejoin:bevel" d="m 6.5071212,10.5 c 0,0 2.021891,0.175125 1.9999995,-1.999999 C 8.4852307,6.324869 6.5071212,6.4999995 6.5071212,6.4999995 m -0.00705,3.9967935 V 6.496794"/>
 <path style="opacity:0.2;fill:none;stroke:#000000;stroke-width:0.99999994;stroke-linecap:round" d="m 10.50712,6.99995 h 2 m -0.999999,4.000001 V 6.99995"/>
 <path style="fill:none;stroke:#ffffff;stroke-width:0.99999994;stroke-linecap:round" d="m 10.50712,6.5 h 2 m -0.999999,4.000001 V 6.5"/>
</svg>
